svgs/contacts_sync.svg

<svg xmlns="http://www.w3.org/2000/svg" viewBox="0 0 192 192"><path d="M80.45 175.091c-30.457-6.466-54.475-29.305-62.172-59.12-2.633-10.198-3.031-24.925-.947-35.029 4.295-20.827 15.878-38.605 32.886-50.475 13.894-9.696 27.55-14.024 44.758-14.187 17.591-.166 30.819 3.675 45.185 13.121 42.676 28.057 48.19 88.212 11.42 124.573-5.368 5.307-15.698 12.439-22.264 15.371-10.67 4.764-17.744 6.257-31.113 6.569-8.517.198-14.181-.064-17.753-.823Zm35.103-15.79c20.275-6.761 34.164-19.727 42.009-39.218 9.267-23.024 3.745-50.892-13.703-69.15-11.433-11.965-24.388-18.402-41.374-20.561-20.264-2.575-43.731 7.051-57.11 23.426-11.829 14.477-18.007 35.903-14.923 51.747 2.729 14.015 8.155 24.933 17.193 34.594 9.296 9.937 18.913 15.921 31.651 19.694 7.828 2.319 9.247 2.475 19.714 2.164 7.644-.226 10.561-.702 16.543-2.696Zm-32.596-16.693-10-9.078 5.45-5.111c2.997-2.811 7.588-6.981 10.202-9.267l4.752-4.156v14.01h3.547c8.281 0 20.93-6.197 25.931-12.705 4.069-5.295 5.178-7.412 6.437-12.292 1.636-6.342 1.517-10.474-.493-17.043l-1.699-5.551 2.897-2.681c1.594-1.474 3.216-2.68 3.606-2.68 1.345 0 4.933 9.514 5.732 15.199 1.761 12.535-2.499 24.163-12.16 33.193-8.665 8.098-16.165 11.388-29.934 13.13l-3.802.481-.233 6.814-.232 6.814Zm-30.184-30.506c-1.142-2.576-2.51-7.219-3.041-10.316-2.72-15.873 6.682-32.993 22.628-41.201 4.616-2.376 13.318-4.894 16.964-4.908 6.295-.025 6.458-.224 6.458-7.865v-6.871l10.193 9.204 10.194 9.205-6.361 5.964c-3.498 3.28-8.084 7.439-10.193 9.242l-3.833 3.279V63.834l-3.833.009c-7.217.017-16.441 3.913-22.923 9.684-9.343 8.319-12.583 21.486-8.337 33.874l1.391 4.056-3.054 2.664c-1.679 1.466-3.307 2.665-3.616 2.665-.309 0-1.496-2.108-2.637-4.684Z"/></svg>

<svg
    xmlns="http://www.w3.org/2000/svg"
    viewBox="0 0 192 192"
    id="vector">
    <path
        id="path"
        d="M 80.45 175.091 C 49.993 168.625 25.975 145.786 18.278 115.971 C 15.645 105.773 15.247 91.046 17.331 80.942 C 21.626 60.115 33.209 42.337 50.217 30.467 C 64.111 20.771 77.767 16.443 94.975 16.28 C 112.566 16.114 125.794 19.955 140.16 29.401 C 182.836 57.458 188.35 117.613 151.58 153.974 C 146.212 159.281 135.882 166.413 129.316 169.345 C 118.646 174.109 111.572 175.602 98.203 175.914 C 89.686 176.112 84.022 175.85 80.45 175.091 Z M 115.553 159.301 C 135.828 152.54 149.717 139.574 157.562 120.083 C 166.829 97.059 161.307 69.191 143.859 50.933 C 132.426 38.968 119.471 32.531 102.485 30.372 C 82.221 27.797 58.754 37.423 45.375 53.798 C 33.546 68.275 27.368 89.701 30.452 105.545 C 33.181 119.56 38.607 130.478 47.645 140.139 C 56.941 150.076 66.558 156.06 79.296 159.833 C 87.124 162.152 88.543 162.308 99.01 161.997 C 106.654 161.771 109.571 161.295 115.553 159.301 Z M 82.957 142.608 L 72.957 133.53 L 78.407 128.419 C 81.404 125.608 85.995 121.438 88.609 119.152 L 93.361 114.996 L 93.361 129.006 L 96.908 129.006 C 105.189 129.006 117.838 122.809 122.839 116.301 C 126.908 111.006 128.017 108.889 129.276 104.009 C 130.912 97.667 130.793 93.535 128.783 86.966 L 127.084 81.415 L 129.981 78.734 C 131.575 77.26 133.197 76.054 133.587 76.054 C 134.932 76.054 138.52 85.568 139.319 91.253 C 141.08 103.788 136.82 115.416 127.159 124.446 C 118.494 132.544 110.994 135.834 97.225 137.576 L 93.423 138.057 L 93.19 144.871 L 92.958 151.685 Z M 52.773 112.102 C 51.631 109.526 50.263 104.883 49.732 101.786 C 47.012 85.913 56.414 68.793 72.36 60.585 C 76.976 58.209 85.678 55.691 89.324 55.677 C 95.619 55.652 95.782 55.453 95.782 47.812 L 95.782 40.941 L 105.975 50.145 L 116.169 59.35 L 109.808 65.314 C 106.31 68.594 101.724 72.753 99.615 74.556 L 95.782 77.835 L 95.782 63.834 L 91.949 63.843 C 84.732 63.86 75.508 67.756 69.026 73.527 C 59.683 81.846 56.443 95.013 60.689 107.401 L 62.08 111.457 L 59.026 114.121 C 57.347 115.587 55.719 116.786 55.41 116.786 C 55.101 116.786 53.914 114.678 52.773 112.102 Z"
        fill="#000000"
        stroke-width="12"/>
</svg>
